X: 2
T: Highland Lassie Going to the Fair
O: Traditional
T: Dance: Brackla Hall
B: Social Dances 2002
R: reel
Z: 2014 John Chambers <jc:trillian.mit.edu>
M: 4/4
L: 1/8
K: Am
B |\
"Am"A2e2 e2dB | "G"e2e^f g2a2 | "Am"A2e2 e2dB | "G"g2dB "Am"A3B |
"Am"A2e2 e2dB | "G"e2e^f g2a2 | "Am"e2dB "Am/C"e2"D"^fd | "Em"e2"G"dB "Am"A3 :|
|: B |\
"Am"A2a2 a2ge | "G"d2e^f g2a2 | "Am"A2a2 a2ge | "G"g2dB "Am"A3B |
"Am"A2a2 a2ge | "G"d2e^f g2a2 | "Am"e2dB "Am/C"e2"D"^fd | "Em"e2"G"dB "Am"A3 :|

